!!!OTL: Kuaihao 
!!!ARE: Asia, China,ÿShandong Wenshang
!! III, 341
!!!SCT: C1764
!!!YEM: Copyright 1995, estate of Helmut Schaffrath.
**kern
*ICvox
*Ivox
*M2/4
*k[f#c#g#d#]
*E:
{4cc#
4b
=1
8g#
16g#
16b
4g#}
=2
{4b
8c#
8c#
=3
16e
16f#
8c#
4e}
=4
{8.b
16g#
8.b
16g#
=5
8b
8e
4f#}
=6
{4b
8c#
8c#
=7
16e
16f#
8c#
4e}
=8
{8.e
16f#
8g#
8g#
=9
8e
16f#
16e
4c#}
=10
{4b
8c#
8c#
=11
16e
16f#
8c#
4e}
=12
{8cc#
16cc#
16b
16g#
16b
8g#
=13
8.cc#
16b
8g#
8g#}
=14
{4g#
8f#
8f#
=15
8f#
8c#
4e}
==
!!!AGN: Haozi
!!!AMT: simple duple
!!!AIN: vox
!!!EED: Helmut Schaffrath
!!!EEV: 1.0
*-
